svg/Mapbox-maki/chemist-12.svg

<svg xmlns="http://www.w3.org/2000/svg" viewBox="0 0 12 12"><g fill-rule="evenodd"><path d="m4 1v1h1v2l-3 6h2 .5 4.125.375 2l-3-6v-2h1v-1h-.719-3.563-.719zm2 1h1v2l1.5 3h-4l1.5-3v-2z" opacity=".3" color="#000" stroke-width="2" stroke-linecap="round" fill="none" stroke-linejoin="round" stroke="#fff"/><path d="m4 1v1h1v2l-3 6h2 .5 4.125.375 2l-3-6v-2h1v-1h-.719-3.563-.719m2 1h1v2l1.5 3h-4l1.5-3v-2" opacity=".99" fill="#454545"/></g></svg>

<?xml version="1.0" encoding="UTF-8" standalone="no"?>
<!-- Created with Inkscape (http://www.inkscape.org/) -->

<svg
   xmlns:dc="http://purl.org/dc/elements/1.1/"
   xmlns:cc="http://creativecommons.org/ns#"
   xmlns:rdf="http://www.w3.org/1999/02/22-rdf-syntax-ns#"
   xmlns:svg="http://www.w3.org/2000/svg"
   xmlns="http://www.w3.org/2000/svg"
   xmlns:sodipodi="http://sodipodi.sourceforge.net/DTD/sodipodi-0.dtd"
   xmlns:inkscape="http://www.inkscape.org/namespaces/inkscape"
   width="12"
   height="12"
   id="svg4764"
   version="1.1"
   inkscape:version="0.48.2 r9819"
   sodipodi:docname="chemist-12.svg">
  <defs
     id="defs4766" />
  <sodipodi:namedview
     id="base"
     pagecolor="#ffffff"
     bordercolor="#666666"
     borderopacity="1.0"
     inkscape:pageopacity="0.0"
     inkscape:pageshadow="2"
     inkscape:zoom="16"
     inkscape:cx="-4.1076054"
     inkscape:cy="6.0739078"
     inkscape:document-units="px"
     inkscape:current-layer="layer1"
     showgrid="false"
     showguides="false"
     inkscape:guide-bbox="true"
     inkscape:window-width="1087"
     inkscape:window-height="967"
     inkscape:window-x="1787"
     inkscape:window-y="19"
     inkscape:window-maximized="0"
     showborder="true"
     inkscape:showpageshadow="false">
    <inkscape:grid
       type="xygrid"
       id="grid4772"
       empspacing="2"
       visible="true"
       enabled="true"
       snapvisiblegridlinesonly="true"
       spacingy="0.5px"
       spacingx="0.5px"
       empcolor="#0000ff"
       empopacity="0.34117647"
       dotted="false" />
    <sodipodi:guide
       orientation="0,1"
       position="2,12"
       id="guide4789" />
    <sodipodi:guide
       orientation="1,0"
       position="12,10"
       id="guide4791" />
    <sodipodi:guide
       orientation="0,1"
       position="10,0"
       id="guide4793" />
    <sodipodi:guide
       orientation="1,0"
       position="0,9"
       id="guide4795" />
    <sodipodi:guide
       orientation="0,1"
       position="5,11"
       id="guide4797" />
    <sodipodi:guide
       orientation="1,0"
       position="11,7"
       id="guide4799" />
    <sodipodi:guide
       orientation="0,1"
       position="9,2"
       id="guide4801" />
    <sodipodi:guide
       orientation="1,0"
       position="2,5"
       id="guide4803" />
  </sodipodi:namedview>
  <metadata
     id="metadata4769">
    <rdf:RDF>
      <cc:Work
         rdf:about="">
        <dc:format>image/svg+xml</dc:format>
        <dc:type
           rdf:resource="http://purl.org/dc/dcmitype/StillImage" />
        <dc:title></dc:title>
      </cc:Work>
    </rdf:RDF>
  </metadata>
  <g
     inkscape:label="Layer 1"
     inkscape:groupmode="layer"
     id="layer1"
     transform="translate(0,-1040.3622)">
    <path
       id="path3899"
       transform="translate(0,1040.3622)"
       d="M 4 1 L 4 2 L 5 2 L 5 4 L 2 10 L 4 10 L 4.5 10 L 8.625 10 L 9 10 L 11 10 L 8 4 L 8 2 L 9 2 L 9 1 L 8.28125 1 L 4.71875 1 L 4 1 z M 6 2 L 7 2 L 7 4 L 8.5 7 L 4.5 7 L 6 4 L 6 2 z "
       style="opacity:0.29999999999999999;fill:none;fill-opacity:1;fill-rule:evenodd;stroke:#ffffff;stroke-width:2;stroke-linecap:round;stroke-linejoin:round;stroke-miterlimit:4;stroke-opacity:1;color:#000000;stroke-dasharray:none;stroke-dashoffset:0;marker:none;visibility:visible;display:inline;overflow:visible;enable-background:accumulate" />
    <path
       style="opacity:0.98999999000000005;fill:#454545;fill-opacity:1;fill-rule:evenodd;stroke:#000000;stroke-width:0;stroke-linecap:butt;stroke-linejoin:miter;stroke-miterlimit:4;stroke-opacity:1"
       d="M 4 1 L 4 2 L 5 2 L 5 4 L 2 10 L 4 10 L 4.5 10 L 8.625 10 L 9 10 L 11 10 L 8 4 L 8 2 L 9 2 L 9 1 L 8.28125 1 L 4.71875 1 L 4 1 z M 6 2 L 7 2 L 7 4 L 8.5 7 L 4.5 7 L 6 4 L 6 2 z "
       transform="translate(0,1040.3622)"
       id="rect3012-2-8" />
  </g>
</svg>
